X: 09007
T: ANN'S HORNPIPE
C: Bob McQuillen 20 Oct 92
B: Bob's Note Book 9 #7
%R: hornpipe, reel
Z: 2019 John Chambers <jc:trillian.mit.edu>
M:
L: 1/8
K: D
FG \
| A2AB AFGA | BGBc B2AB | cedB Aceg | fafd A2FG |
| A2AB AFGA | BGBd edcB | Adfa gecd | e2d2 d2 :|
|: cB \
| A2AB cBAB | cdef g2ef | gagf efed | c2A2 Agfe |
| d2AF Adfe | d2BG Bdgf | efec Aceg | f2d2 d2 :|
%%begintext align
%% If you have had very much
%% to do with the Country Cance and Song Society down in
%% Northampton, MA, then most likely you have encountered
%% Ann Pearce in their office, where she is sales manager.
%% I see her quite often at various dance functions, and
%% she is always nice to me. Now it's my turn to be nice to
%% you, Ann!
%%endtext

%%sep 1 1 500

%%sep 1 1 500

